X:1
T:Title
%%score ( 1 2 ) ( 3 4 )
L:1/8
Q:1/4=60
M:6/8
K:B
V:1 treble nm="Strings 1, Soprano"
V:2 treble 
V:3 bass nm="Strings 1, Bass"
V:4 bass 
V:1
 z3 z2 [DF] | [DF]2 [DF] [B,D][DF][DB] | [EB]2 [EA] [EA]2 [DB] | [Ec]2 [EF] E-[EG][EA] | %4
w: 1.~Since~|Je sus~ gave~ * His~|life~ for~ me,~ Should~|I~ not~ give~ * Him~|
 [DB]3- [DB]2 [DF] | [EG]2 [EG] B,-[B,F][EG] | [DF]2 [B,D] [DF]2 [DF] | [EF]2 [EF] [EG]2 [EF] | %8
w: mine?~ * I'm~|con se crat * ed,~|Lord,~ to~ Thee,~ I~|shall~ be~ whol ly~|
 [DF]3- [DF]2 [DF] | [Fd]2 [Fd] [Fd][Ec][DB] | [Ec]2 [EA] [EF]2 [EF] | [Ec]2 [Ec] [Ec][Fd][Ec] | %12
w: Thine.~ * *||||
 [DB]3- [DB]2 [FB] | [GB]2 [GB] [GB][FA][EG] | [EG]2 [DF] [DF]2 [DF] | [EF]2 [EF] [EA]2 [Ec] | %16
w: ||||
 [DB]6 |] %17
w: |
V:2
 x6 | x6 | x6 | z3 .F3 | x6 | z3 .E3 | x6 | x6 | x6 | x6 | x6 | x6 | x6 | x6 | x6 | x6 | x6 |] %17
V:3
 z3 z2 [B,,B,] | [B,,B,]2 [B,,B,] [B,,F,]2 [B,,F,] | [C,F,]2 [C,F,] [C,F,]2 F, | %3
 [F,A,]2 [F,A,] A,B,[F,C] | [B,,B,]3- [B,,B,]2 [B,,B,] | [E,B,]2 [E,B,] G,A,[E,B,] | %6
 [B,,B,]2 [B,,F,] [B,,B,]2 [B,,B,] | [F,A,]2 [F,A,] [F,C]2 [F,A,] | [B,,B,]3- [B,,B,]2 [B,,B,] | %9
 [B,,B,]2 [B,,B,] [B,,B,]2 [B,,B,] | [F,A,]2 [F,C] [F,A,]2 [F,A,] | [F,A,]2 [F,A,] A,B,[F,A,] | %12
 [B,,B,]3- [B,,B,]2 [D,B,] | [E,B,]2 [E,B,] [E,B,]2 [E,B,] | [B,,B,]2 [B,,B,] [B,,B,]2 [B,,B,] | %15
 [F,A,]2 [F,A,] [F,C]2 [F,A,] | B,2 G, .F,3 |] %17
V:4
 x6 | x6 | x6 | z3 .F,3 | x6 | z3 .E,3 | x6 | x6 | x6 | x6 | x6 | z3 .F,3 | x6 | x6 | x6 | x6 | %16
 B,,6 |] %17

